teeny/outline/receipt.svg

<svg width="15" height="15" viewBox="0 0 15 15" fill="none" xmlns="http://www.w3.org/2000/svg">
<path d="M1.5 0.5V0C1.22386 0 1 0.223858 1 0.5L1.5 0.5ZM13.5 0.5H14C14 0.223858 13.7761 0 13.5 0V0.5ZM13.5 14.5L13.2764 14.9472C13.4314 15.0247 13.6155 15.0164 13.7629 14.9253C13.9103 14.8342 14 14.6733 14 14.5H13.5ZM11.5 13.5L11.7236 13.0528C11.5828 12.9824 11.4172 12.9824 11.2764 13.0528L11.5 13.5ZM9.5 14.5L9.27639 14.9472C9.41716 15.0176 9.58284 15.0176 9.72361 14.9472L9.5 14.5ZM7.5 13.5L7.72361 13.0528C7.58284 12.9824 7.41716 12.9824 7.27639 13.0528L7.5 13.5ZM5.5 14.5L5.27639 14.9472C5.41716 15.0176 5.58284 15.0176 5.72361 14.9472L5.5 14.5ZM1.5 14.5H1C1 14.6733 1.08973 14.8342 1.23713 14.9253C1.38454 15.0164 1.56861 15.0247 1.72361 14.9472L1.5 14.5ZM3.5 13.5L3.72361 13.0528C3.58284 12.9824 3.41716 12.9824 3.27639 13.0528L3.5 13.5ZM1.5 1H13.5V0H1.5V1ZM13 0.5V14.5H14V0.5H13ZM13.7236 14.0528L11.7236 13.0528L11.2764 13.9472L13.2764 14.9472L13.7236 14.0528ZM11.2764 13.0528L9.27639 14.0528L9.72361 14.9472L11.7236 13.9472L11.2764 13.0528ZM9.72361 14.0528L7.72361 13.0528L7.27639 13.9472L9.27639 14.9472L9.72361 14.0528ZM7.27639 13.0528L5.27639 14.0528L5.72361 14.9472L7.72361 13.9472L7.27639 13.0528ZM2 14.5V0.5H1V14.5H2ZM5.72361 14.0528L3.72361 13.0528L3.27639 13.9472L5.27639 14.9472L5.72361 14.0528ZM3.27639 13.0528L1.27639 14.0528L1.72361 14.9472L3.72361 13.9472L3.27639 13.0528ZM4 5H6V4H4V5ZM8 5H11V4H8V5ZM4 8H6V7H4V8ZM8 8H11V7H8V8ZM8 11H11V10H8V11Z" fill="black"/>
</svg>

<svg viewBox="0 0 15 15" xmlns="http://www.w3.org/2000/svg"><path d="M1.5.5V0c-.28 0-.5.22-.5.5h.5Zm12 0h.5c0-.28-.23-.5-.5-.5v.5Zm0 14l-.23.44c.15.07.33.06.48-.03 .14-.1.23-.26.23-.43h-.5Zm-2-1l.22-.45c-.15-.08-.31-.08-.45 0l.22.44Zm-2 1l-.23.44c.14.07.3.07.44 0l-.23-.45Zm-2-1l.22-.45c-.15-.08-.31-.08-.45 0l.22.44Zm-2 1l-.23.44c.14.07.3.07.44 0l-.23-.45Zm-4 0H1c0 .17.08.33.23.42 .14.09.33.09.48.02l-.23-.45Zm2-1l.22-.45c-.15-.08-.31-.08-.45 0l.22.44ZM1.5 1h12V0h-12v1ZM13 .5v14h1V.5h-1Zm.72 13.55l-2-1 -.45.89 2 1 .44-.9Zm-2.45-1l-2.01 1 .44.89 1.99-1 -.45-.9Zm-1.56 1l-2-1 -.45.89 2 1 .44-.9Zm-2.45-1l-2 1 .44.89 2-1 -.45-.9Zm-5.28 1.44v-14h-1v14h1Zm3.72-.45l-2-1 -.45.89 2 1 .44-.9Zm-2.45-1l-2 1 .44.89 2-1 -.45-.9Zm.72-8.06h2v-1h-2v1Zm4 0h3v-1h-3v1Zm-4 3h2v-1h-2v1Zm4 0h3v-1h-3v1Zm0 3h3v-1h-3v1Z"/></svg>
